src/assets/icons/pokeball.svg

<svg width="155" height="157" xmlns="http://www.w3.org/2000/svg"><path d="M77.0167 156.353C38.0696 156.326 5.79932 127.841 0 90.6279L39.6127 90.555C44.6733 106.337 59.5044 117.762 77.0167 117.771C94.5009 117.751 109.311 106.345 114.391 90.5905L153.99 90.555C148.232 127.79 115.969 156.304 77.0167 156.353ZM77.0167 104.014C62.9338 104.014 51.517 92.6317 51.517 78.5918C51.517 64.5518 62.9338 53.17 77.0167 53.17C91.0997 53.17 102.516 64.5518 102.516 78.5918C102.516 92.6317 91.0997 104.014 77.0167 104.014ZM0.0431252 66.6286C5.80119 29.3931 38.064 0.879522 77.0167 0.830921C115.964 0.857091 148.234 29.3426 154.033 66.5557L114.421 66.6286C109.36 50.8465 94.5291 39.4216 77.0167 39.4123C59.5325 39.4328 44.7221 50.839 39.6427 66.5931L0.0431252 66.6286Z" fill="#fff"/></svg>

<svg width="155" height="157" xmlns="http://www.w3.org/2000/svg"><path d="M77.017 156.353C38.07 156.326 5.799 127.841 0 90.628l39.613-.073c5.06 15.782 19.891 27.207 37.404 27.216 17.484-.02 32.294-11.426 37.374-27.18l39.599-.036c-5.758 37.235-38.021 65.749-76.973 65.798Zm0-52.339c-14.083 0-25.5-11.382-25.5-25.422 0-14.04 11.417-25.422 25.5-25.422s25.499 11.382 25.499 25.422c0 14.04-11.416 25.422-25.5 25.422ZM.043 66.629C5.801 29.393 38.064.879 77.017.83c38.947.026 71.217 28.512 77.016 65.725l-39.612.073c-5.061-15.783-19.892-27.207-37.404-27.217-17.484.02-32.295 11.427-37.374 27.181l-39.6.036Z" fill="#fff"/></svg>
